T: Reefs, The
M: 4/4
L: 1/8
K: Gmaj
(3DEF |: G3 F EDB,A, | G,A,B,G, G2 DB, | G,A,B,G, GA (3Bcd | ga (3bag eggf |
ga (3bag efge | dged Bc d2 | dggb gbe^c | dBAF GEED :|
E2 BE eE B2 | GABG AGFD | E2 eE dE B2 | D2 FD A,DFD |
EBBB B3 c | cBAA Bcde | fggf gfe^c | dBAF GEED :|
